X: 04010
T: BLUE RIBBON IN HER HAIR
C: Bob McQuillen 22 Sept'79
B: Bob's Note Book 04 #10
%R: waltz
Z: 2020 John Chambers <jc:trillian.mit.edu>
M: 3/4
L: 1/4
K: G
G/A/ \
| B2G | ABc | d2B | G2B | A>BA | AGA | Bd>e | dBA |\
| B2G | ABc | d2B | G2B | A>Bc | BGA | G3-  | G2 :|
|: d \
| g2d | efg  | d3  | B2d | c>Bc | ABc | ed>B | dBd |\
| g2d | e>fg | d2B | G2B | AB>c | B2A | G3-  | G2 :|
%%begintext align
%% Kathy Rockwood is a Blue
%% Ribbon girl for sure, and
%% this tune is for you, Kathy,
%% with love from Mac.
%%endtext

%%sep 1 1 500

%%sep 1 1 500

